X:48
T:Bell Brandon
C:F. Woolcott
L:1/8
M:2/2
S:Colin Hume's website,  colinhume.com  - chords can also be printed below the stave.
Q:1/2=95
K:D
P:A
[| AG | "D"F2FA "A"GFGB | "D"A2d2 "/"z2AG | "D"FFFA "G"G2AB | "A"E4 "/"z2AG |\
"D"F2FA "A"GFGB | "D"A2f2- "E"f2ed | "A"ccdc "E"B2cB | "A"A4 "/"z2Bc |
P:B
"D"eddd "/"FFGA | "G"c4 "/"B2EF | "A"AGGG "D"FFAF | "A"E4 z2AG |\
"D"F2FA "A"GFGB | "D"A2f2- "/"f2dB | "D/A"A2FD "A7"E2GF | "D"D4 "/"z4 |]

